dist/images/quick-links-section/Activities for Kids & Youth icon.svg

<svg width="45" height="43" viewBox="0 0 45 43" fill="none" xmlns="http://www.w3.org/2000/svg">
<g clip-path="url(#clip0_133_244)">
<path d="M15.2549 20.0689C18.4849 20.0689 21.1119 17.9777 21.1119 15.4075C21.1119 15.2173 21.0348 15.035 20.8975 14.9005C20.7602 14.7661 20.5741 14.6905 20.3799 14.6905C20.1858 14.6905 19.9996 14.7661 19.8623 14.9005C19.725 15.035 19.6479 15.2173 19.6479 15.4075C19.6479 17.0041 18.0619 18.3323 15.9869 18.5889V16.3126C16.0643 16.2746 16.1385 16.2307 16.2089 16.1813L17.4519 15.3125C17.6799 15.1505 17.8653 14.9376 17.9926 14.6915C18.1199 14.4453 18.1855 14.173 18.1839 13.8971C18.1928 13.4503 18.0202 13.0182 17.704 12.6959C17.3879 12.3736 16.9541 12.1874 16.4979 12.1781H14.0129C13.5571 12.1874 13.1236 12.3733 12.8075 12.6952C12.4914 13.0171 12.3186 13.4486 12.3269 13.8952C12.3254 14.1711 12.391 14.4434 12.5183 14.6895C12.6456 14.9357 12.8309 15.1485 13.0589 15.3105L14.3019 16.1794C14.3723 16.2288 14.4465 16.2726 14.5239 16.3106V18.587C12.4489 18.3303 10.8629 17.0021 10.8629 15.4055C10.8629 15.2154 10.7858 15.033 10.6485 14.8986C10.5112 14.7641 10.3251 14.6886 10.1309 14.6886C9.93678 14.6886 9.7506 14.7641 9.61332 14.8986C9.47604 15.033 9.39893 15.2154 9.39893 15.4055C9.39793 17.9787 12.0259 20.0689 15.2549 20.0689ZM13.9089 14.1459C13.8708 14.1163 13.8403 14.0784 13.8198 14.0352C13.7993 13.992 13.7894 13.9447 13.7909 13.8971C13.7842 13.8311 13.8034 13.7651 13.8447 13.7125C13.8859 13.6599 13.9461 13.6247 14.0129 13.614H16.4979C16.5648 13.6247 16.6249 13.6599 16.6662 13.7125C16.7074 13.7651 16.7267 13.8311 16.7199 13.8971C16.7214 13.9447 16.7115 13.992 16.691 14.0352C16.6705 14.0784 16.64 14.1163 16.6019 14.1459L15.3589 15.0147C15.3291 15.0373 15.2926 15.0495 15.2549 15.0495C15.2173 15.0495 15.1807 15.0373 15.1509 15.0147L13.9089 14.1459Z" fill="#FCF9F7"/>
<path d="M19.588 12.183C19.9922 12.183 20.32 11.862 20.32 11.466C20.32 11.07 19.9922 10.749 19.588 10.749C19.1837 10.749 18.856 11.07 18.856 11.466C18.856 11.862 19.1837 12.183 19.588 12.183Z" fill="#FCF9F7"/>
<path d="M10.8809 12.183C11.2852 12.183 11.6129 11.862 11.6129 11.466C11.6129 11.07 11.2852 10.749 10.8809 10.749C10.4767 10.749 10.1489 11.07 10.1489 11.466C10.1489 11.862 10.4767 12.183 10.8809 12.183Z" fill="#FCF9F7"/>
<path d="M34.096 26.518C34.6753 26.518 35.2417 26.3497 35.7234 26.0344C36.2051 25.7191 36.5805 25.271 36.8021 24.7467C37.0238 24.2224 37.0817 23.6455 36.9686 23.089C36.8555 22.5324 36.5765 22.0212 36.1667 21.62C35.757 21.2188 35.235 20.9457 34.6668 20.8351C34.0986 20.7245 33.5096 20.7814 32.9744 20.9987C32.4392 21.216 31.9818 21.5839 31.6601 22.0558C31.3384 22.5278 31.1668 23.0825 31.167 23.65C31.1673 24.4107 31.476 25.1402 32.0252 25.678C32.5745 26.2158 33.3193 26.518 34.096 26.518ZM34.096 22.215C34.3855 22.215 34.6686 22.2991 34.9093 22.4567C35.1501 22.6143 35.3377 22.8382 35.4485 23.1003C35.5594 23.3623 35.5883 23.6506 35.5319 23.9288C35.4754 24.2069 35.3359 24.4625 35.1312 24.663C34.9265 24.8636 34.6656 25.0001 34.3816 25.0555C34.0976 25.1108 33.8032 25.0824 33.5357 24.9739C33.2682 24.8653 33.0396 24.6815 32.8787 24.4457C32.7179 24.2099 32.632 23.9326 32.632 23.649C32.632 23.2687 32.7862 22.904 33.0608 22.635C33.3353 22.3661 33.7077 22.215 34.096 22.215Z" fill="#FCF9F7"/>
<path d="M44.2711 27.95H39.9171V18.633C39.917 18.4862 39.8709 18.343 39.7851 18.2226L34.7051 11.0556C34.6387 10.9613 34.5499 10.8841 34.4464 10.8309C34.3428 10.7776 34.2276 10.7497 34.1106 10.7497C33.9936 10.7497 33.8784 10.7776 33.7748 10.8309C33.6712 10.8841 33.5825 10.9613 33.5161 11.0556L28.4361 18.2226C28.3506 18.3431 28.3048 18.4863 28.3051 18.633V23.1182C27.2561 21.7515 25.9028 20.637 24.3481 19.8594C25.9976 17.9034 26.8836 15.4368 26.8481 12.9C26.852 11.7315 26.6726 10.5693 26.3161 9.45415C27.2634 8.95712 28.0276 8.18139 28.5009 7.23633C28.9741 6.29126 29.1327 5.22453 28.954 4.18653C28.7754 3.14852 28.2687 2.19161 27.5053 1.4507C26.7419 0.709794 25.7604 0.222261 24.6991 0.0568388C23.6388 -0.0996192 22.5552 0.0772042 21.604 0.561895C20.6528 1.04659 19.8829 1.81419 19.4051 2.75438C16.6832 1.94852 13.7789 1.94852 11.0571 2.75438C10.5787 1.81288 9.80751 1.04447 8.85462 0.559911C7.90172 0.0753486 6.81636 -0.100339 5.75497 0.0581708C4.69358 0.216681 3.71098 0.701203 2.94881 1.4419C2.18664 2.18259 1.68426 3.1412 1.51408 4.17955C1.33395 5.21851 1.4916 6.28665 1.96477 7.2331C2.43794 8.17955 3.20272 8.95648 4.15108 9.45415C3.79459 10.5693 3.61516 11.7315 3.61908 12.9C3.5836 15.4368 4.46965 17.9033 6.11908 19.8594C4.43313 20.6788 2.99126 21.9101 1.93258 23.4343C0.873907 24.9585 0.234165 26.7243 0.0750799 28.5612C0.0750799 28.5701 0.0750799 28.5789 0.0750799 28.5877L-0.000920303 29.576C-0.00327396 29.6086 -0.00327396 29.6413 -0.000920303 29.6739C0.0552977 30.5104 0.359683 31.3126 0.874858 31.982C1.39003 32.6514 2.09357 33.1589 2.89908 33.4421C2.41989 34.4121 2.17263 35.4763 2.17608 36.5539C2.17608 40.1105 4.77608 43.0039 7.98208 43.0039C8.82627 42.9912 9.65624 42.7891 10.4082 42.4132C11.1603 42.0373 11.8143 41.4975 12.3201 40.8353C13.2144 41.318 14.219 41.5711 15.2401 41.5711C16.2612 41.5711 17.2657 41.318 18.1601 40.8353C18.6669 41.496 19.3215 42.0342 20.0736 42.4085C20.8258 42.7829 21.6555 42.9836 22.4991 42.9951C23.6281 42.9597 24.7219 42.6016 25.6458 41.9649C26.5698 41.3283 27.2835 40.441 27.6991 39.4121H44.2711C44.4639 39.4119 44.6488 39.3368 44.7852 39.2033C44.9216 39.0699 44.9986 38.8889 44.9991 38.7V28.666C44.9993 28.5722 44.9807 28.4792 44.9443 28.3924C44.9078 28.3056 44.8542 28.2267 44.7866 28.1602C44.719 28.0937 44.6387 28.0409 44.5502 28.0048C44.4618 27.9688 44.3669 27.9502 44.2711 27.95ZM34.1111 12.7159L37.7991 17.92H30.4241L34.1111 12.7159ZM29.7561 19.35H38.4651V27.95H30.3081C30.194 27.2163 30.0092 26.4947 29.7561 25.7951V19.35ZM27.5791 33.4333C28.264 33.1901 28.8761 32.7834 29.3601 32.25H30.4811V35.117H28.1581C28.0394 34.5338 27.8448 33.968 27.5791 33.4333ZM28.9461 28.7033L29.0111 29.622C28.9606 30.2266 28.7156 30.7999 28.3112 31.2593C27.9069 31.7187 27.3641 32.0406 26.7611 32.1785C25.8821 31.0858 24.6121 30.361 23.2081 30.151C23.1453 27.4285 22.1789 24.8002 20.4551 22.6637C21.4812 22.2355 22.4319 21.6514 23.2721 20.9329C24.8396 21.6148 26.1923 22.6949 27.19 24.0614C28.1877 25.4279 28.794 27.0309 28.9461 28.7042V28.7033ZM23.9421 1.43304C24.7412 1.4356 25.5171 1.69609 26.1498 2.17417C26.7825 2.65225 27.2367 3.32127 27.4421 4.07768C27.6511 4.83629 27.6007 5.64109 27.2986 6.36899C26.9965 7.09688 26.4593 7.70781 25.7691 8.10832C25.2634 7.06114 24.5758 6.10796 23.7371 5.29128C22.8738 4.45489 21.8689 3.77152 20.7671 3.27155C21.0805 2.71533 21.5402 2.25147 22.0986 1.92816C22.6569 1.60484 23.2935 1.43388 23.9421 1.43304ZM2.89908 5.01604C2.89153 4.22538 3.15371 3.45489 3.64402 2.82676C4.13434 2.19864 4.82473 1.74884 5.60569 1.54872C6.38665 1.34859 7.21347 1.4096 7.95501 1.72205C8.69655 2.03451 9.31036 2.58053 9.69908 3.27351C8.59723 3.77336 7.59231 4.45674 6.72908 5.29324C5.89029 6.10989 5.20273 7.06308 4.69708 8.11028C4.14864 7.79194 3.69427 7.33923 3.37866 6.79669C3.06305 6.25415 2.89708 5.64047 2.89708 5.01604H2.89908ZM7.74708 6.31584C8.74833 5.39684 9.92612 4.68198 11.212 4.21283C12.4978 3.74368 13.866 3.5296 15.2371 3.58303C16.6081 3.5296 17.9764 3.74368 19.2622 4.21283C20.548 4.68198 21.7258 5.39684 22.7271 6.31584C23.5964 7.18435 24.2804 8.21383 24.739 9.34415C25.1976 10.4745 25.4216 11.683 25.3981 12.899C25.4216 14.1163 25.1971 15.3259 24.7376 16.4571C24.2781 17.5884 23.5929 18.6185 22.7221 19.4872C21.7209 20.4062 20.5431 21.1211 19.2572 21.5902C17.9714 22.0594 16.6031 22.2735 15.2321 22.22C13.861 22.2735 12.4928 22.0594 11.2069 21.5902C9.92108 21.1211 8.7433 20.4062 7.74208 19.4872C6.87274 18.6186 6.1888 17.5892 5.73019 16.4588C5.27159 15.3285 5.04752 14.12 5.07108 12.9039C5.04699 11.687 5.27089 10.4775 5.72968 9.3463C6.18848 8.21509 6.87295 7.18485 7.74308 6.31584H7.74708ZM1.45308 29.621L1.51808 28.7023C1.67016 27.0289 2.27648 25.4259 3.27417 24.0594C4.27186 22.693 5.62459 21.6128 7.19208 20.9309C8.0358 21.6527 8.99099 22.2388 10.0221 22.6676C8.30376 24.805 7.33889 27.4303 7.27208 30.15C5.86642 30.3604 4.5951 31.0866 3.71608 32.1815C3.11019 32.0457 2.5642 31.7244 2.15729 31.2642C1.75039 30.804 1.50373 30.2288 1.45308 29.622V29.621ZM7.98308 41.5709C5.58308 41.5709 3.62808 39.3181 3.62808 36.5539C3.62808 33.7898 5.58208 31.535 7.98308 31.535C10.3841 31.535 12.3381 33.7878 12.3381 36.552C12.3381 39.3161 10.3841 41.567 7.98308 41.567V41.5709ZM15.2411 40.1379C14.4927 40.1354 13.7559 39.9563 13.0931 39.6159C13.5564 38.6594 13.7956 37.6136 13.7931 36.5549C13.7931 33.2785 11.5821 30.5663 8.73008 30.1598C8.77789 27.5825 9.76742 25.1075 11.5191 23.1838C13.9596 23.8148 16.5255 23.8148 18.9661 23.1838C20.7248 25.1052 21.7168 27.5835 21.7601 30.1637C18.9081 30.5702 16.6961 33.2814 16.6961 36.5588C16.6936 37.6175 16.9327 38.6633 17.3961 39.6198C16.7304 39.9582 15.9911 40.1343 15.2411 40.133V40.1379ZM22.4991 41.567C20.0991 41.567 18.1441 39.3142 18.1441 36.55C18.1441 33.7859 20.0991 31.535 22.4991 31.535C24.8991 31.535 26.8541 33.7878 26.8541 36.552C26.8541 39.3161 24.8991 41.567 22.4991 41.567ZM28.3051 36.55H31.2051C31.3008 36.5496 31.3955 36.5308 31.4838 36.4945C31.5721 36.4583 31.6523 36.4054 31.7197 36.3388C31.7871 36.2722 31.8405 36.1933 31.8767 36.1065C31.913 36.0197 31.9315 35.9268 31.9311 35.833V31.535C31.9315 31.4412 31.913 31.3483 31.8767 31.2615C31.8405 31.1747 31.7871 31.0958 31.7197 31.0292C31.6523 30.9626 31.5721 30.9097 31.4838 30.8735C31.3955 30.8372 31.3008 30.8184 31.2051 30.818H30.2211C30.3541 30.4482 30.4349 30.0623 30.4611 29.671C30.4633 29.6384 30.4633 29.6057 30.4611 29.5731L30.4501 29.3801H33.3841V37.9801H28.1581C28.2551 37.5083 28.304 37.0283 28.3041 36.5471L28.3051 36.55ZM43.5461 37.983H34.8361V29.3801H43.5451L43.5461 37.983Z" fill="#FCF9F7"/>
<path d="M36.943 36.551H41.336C41.4608 36.5511 41.5837 36.5199 41.6928 36.4603C41.8019 36.4008 41.8936 36.3149 41.9593 36.2109C42.0249 36.1068 42.0623 35.988 42.0678 35.8658C42.0734 35.7436 42.0469 35.6221 41.991 35.5127L39.7909 31.2098C39.7302 31.0905 39.6367 30.9902 39.521 30.9201C39.4053 30.85 39.272 30.8129 39.1359 30.8129C38.9999 30.8129 38.8665 30.85 38.7508 30.9201C38.6351 30.9902 38.5417 31.0905 38.4809 31.2098L36.281 35.5127C36.225 35.6221 36.1985 35.7436 36.2041 35.8658C36.2096 35.988 36.247 36.1068 36.3126 36.2109C36.3783 36.3149 36.47 36.4008 36.5791 36.4603C36.6882 36.5199 36.8111 36.5511 36.936 36.551H36.943ZM39.143 33.1345L40.155 35.117H38.131L39.143 33.1345Z" fill="#FCF9F7"/>
</g>
<defs>
<clipPath id="clip0_133_244">
<rect width="44.997" height="43" fill="white"/>
</clipPath>
</defs>
</svg>

<svg width="45" height="43" fill="none" xmlns="http://www.w3.org/2000/svg"><g clip-path="url(#a)" fill="#FCF9F7"><path d="M15.255 20.069c3.23 0 5.857-2.091 5.857-4.661a.71.71 0 0 0-.214-.508.74.74 0 0 0-1.036 0 .71.71 0 0 0-.214.508c0 1.596-1.586 2.924-3.661 3.18v-2.275a1.66 1.66 0 0 0 .222-.132l1.243-.869a1.74 1.74 0 0 0 .54-.62 1.7 1.7 0 0 0 .192-.795 1.668 1.668 0 0 0-.48-1.201 1.74 1.74 0 0 0-1.206-.518h-2.485a1.74 1.74 0 0 0-1.206.517 1.668 1.668 0 0 0-.48 1.2 1.71 1.71 0 0 0 .191.795c.128.246.313.459.54.62l1.244.87c.07.049.145.093.222.13v2.277c-2.075-.257-3.661-1.585-3.661-3.181a.71.71 0 0 0-.214-.507.74.74 0 0 0-1.036 0 .71.71 0 0 0-.214.507c-.001 2.573 2.627 4.663 5.856 4.663Zm-1.346-5.923a.307.307 0 0 1-.118-.249.257.257 0 0 1 .054-.184.267.267 0 0 1 .168-.099h2.485c.067.01.127.046.168.098.041.053.06.12.054.185a.3.3 0 0 1-.118.249l-1.243.869a.172.172 0 0 1-.208 0l-1.242-.87Zm5.679-1.963a.725.725 0 0 0 .732-.717.725.725 0 0 0-.732-.717.725.725 0 0 0-.732.717c0 .396.328.717.732.717Zm-8.708 0a.725.725 0 0 0 .733-.717.725.725 0 0 0-.732-.717.725.725 0 0 0-.732.717c0 .396.328.717.732.717Zm23.216 14.335c.58 0 1.146-.168 1.627-.484a2.882 2.882 0 0 0 1.08-1.287 2.83 2.83 0 0 0 .166-1.658 2.85 2.85 0 0 0-.802-1.469 2.948 2.948 0 0 0-1.5-.785 2.986 2.986 0 0 0-1.693.164 2.917 2.917 0 0 0-1.314 1.057 2.828 2.828 0 0 0-.493 1.594c0 .76.309 1.49.858 2.028a2.96 2.96 0 0 0 2.071.84Zm0-4.303c.29 0 .573.084.813.242.241.157.429.381.54.643a1.407 1.407 0 0 1-.318 1.563 1.493 1.493 0 0 1-1.596.31 1.459 1.459 0 0 1-.656-.527 1.414 1.414 0 0 1 .182-1.811 1.48 1.48 0 0 1 1.035-.42Z"/><path d="M44.271 27.95h-4.354v-9.317a.708.708 0 0 0-.132-.41l-5.08-7.167a.717.717 0 0 0-.594-.306.734.734 0 0 0-.595.306l-5.08 7.167a.706.706 0 0 0-.13.41v4.485a11.43 11.43 0 0 0-3.958-3.259 10.562 10.562 0 0 0 2.5-6.959 11.191 11.191 0 0 0-.532-3.446 5.077 5.077 0 0 0 2.185-2.218 4.936 4.936 0 0 0 .453-3.05 4.994 4.994 0 0 0-1.449-2.735A5.172 5.172 0 0 0 24.7.057a5.163 5.163 0 0 0-3.095.505 5.017 5.017 0 0 0-2.199 2.192 14.715 14.715 0 0 0-8.348 0A5.016 5.016 0 0 0 8.855.56a5.162 5.162 0 0 0-3.1-.502 5.108 5.108 0 0 0-2.806 1.384A4.93 4.93 0 0 0 1.514 4.18a4.937 4.937 0 0 0 .45 3.053 5.077 5.077 0 0 0 2.187 2.221A11.19 11.19 0 0 0 3.62 12.9a10.563 10.563 0 0 0 2.5 6.96 10.886 10.886 0 0 0-4.186 3.574 10.587 10.587 0 0 0-1.858 5.154L0 29.576a.68.68 0 0 0 0 .098c.056.836.36 1.639.876 2.308a4.389 4.389 0 0 0 2.024 1.46 6.973 6.973 0 0 0-.723 3.112c0 3.556 2.6 6.45 5.806 6.45a5.617 5.617 0 0 0 2.426-.59 5.496 5.496 0 0 0 1.912-1.579 6.15 6.15 0 0 0 2.92.736 6.15 6.15 0 0 0 2.92-.736 5.496 5.496 0 0 0 1.914 1.573 5.617 5.617 0 0 0 2.425.587 5.872 5.872 0 0 0 3.147-1.03 5.693 5.693 0 0 0 2.053-2.553h16.572a.736.736 0 0 0 .514-.209A.707.707 0 0 0 45 38.7V28.666a.703.703 0 0 0-.212-.506.73.73 0 0 0-.516-.21Zm-10.16-15.234L37.8 17.92h-7.375l3.687-5.204Zm-4.355 6.634h8.71v8.6h-8.158a11.552 11.552 0 0 0-.552-2.155V19.35ZM27.58 33.433a4.385 4.385 0 0 0 1.781-1.183h1.121v2.867h-2.323a6.856 6.856 0 0 0-.579-1.684Zm1.367-4.73.065.919a2.835 2.835 0 0 1-.7 1.637c-.404.46-.947.782-1.55.92a5.625 5.625 0 0 0-3.553-2.028 12.375 12.375 0 0 0-2.753-7.487 10.636 10.636 0 0 0 2.817-1.731 9.576 9.576 0 0 1 3.918 3.128 9.3 9.3 0 0 1 1.756 4.643Zm-5.004-27.27c.8.003 1.575.263 2.208.741A3.556 3.556 0 0 1 27.3 6.369a3.618 3.618 0 0 1-1.53 1.74 10.005 10.005 0 0 0-2.032-2.818 10.507 10.507 0 0 0-2.97-2.02A3.592 3.592 0 0 1 22.1 1.929a3.69 3.69 0 0 1 1.843-.495ZM2.9 5.016a3.502 3.502 0 0 1 .745-2.19A3.63 3.63 0 0 1 5.606 1.55c.78-.2 1.607-.14 2.349.173a3.598 3.598 0 0 1 1.744 1.552 10.5 10.5 0 0 0-2.97 2.02A10.004 10.004 0 0 0 4.697 8.11 3.633 3.633 0 0 1 3.38 6.797a3.54 3.54 0 0 1-.482-1.781H2.9Zm4.848 1.3a10.389 10.389 0 0 1 3.465-2.103 10.548 10.548 0 0 1 4.025-.63c1.371-.053 2.74.16 4.025.63a10.39 10.39 0 0 1 3.465 2.103 9.14 9.14 0 0 1 2.012 3.028 8.99 8.99 0 0 1 .66 3.555 8.99 8.99 0 0 1-.661 3.558 9.14 9.14 0 0 1-2.016 3.03 10.387 10.387 0 0 1-3.465 2.103 10.54 10.54 0 0 1-4.025.63c-1.371.053-2.74-.16-4.025-.63a10.388 10.388 0 0 1-3.465-2.103A9.14 9.14 0 0 1 5.73 16.46a8.99 8.99 0 0 1-.659-3.555 8.99 8.99 0 0 1 .659-3.558 9.139 9.139 0 0 1 2.013-3.03h.004ZM1.453 29.62l.065-.919a9.3 9.3 0 0 1 1.756-4.643 9.577 9.577 0 0 1 3.918-3.128 10.634 10.634 0 0 0 2.83 1.737 12.426 12.426 0 0 0-2.75 7.482 5.625 5.625 0 0 0-3.556 2.032 2.937 2.937 0 0 1-1.559-.918 2.835 2.835 0 0 1-.704-1.642v-.001Zm6.53 11.95c-2.4 0-4.355-2.253-4.355-5.017 0-2.764 1.954-5.019 4.355-5.019 2.401 0 4.355 2.253 4.355 5.017 0 2.764-1.954 5.015-4.355 5.015v.004Zm7.258-1.433a4.738 4.738 0 0 1-2.148-.522 6.981 6.981 0 0 0 .7-3.061c0-3.276-2.21-5.989-5.063-6.395a10.653 10.653 0 0 1 2.79-6.976c2.44.63 5.006.63 7.446 0a10.6 10.6 0 0 1 2.794 6.98c-2.852.406-5.064 3.117-5.064 6.395a6.98 6.98 0 0 0 .7 3.06 4.74 4.74 0 0 1-2.155.514v.005Zm7.258 1.429c-2.4 0-4.355-2.253-4.355-5.017 0-2.764 1.955-5.015 4.355-5.015 2.4 0 4.355 2.253 4.355 5.017 0 2.764-1.955 5.015-4.355 5.015Zm5.806-5.017h2.9a.741.741 0 0 0 .515-.211.712.712 0 0 0 .211-.506v-4.298a.7.7 0 0 0-.211-.506.729.729 0 0 0-.515-.211h-.984c.133-.37.214-.756.24-1.147a.727.727 0 0 0 0-.098l-.01-.193h2.933v8.6h-5.226c.097-.472.146-.952.146-1.433l.001.003Zm15.241 1.433h-8.71V29.38h8.71v8.603Z"/><path d="M36.943 36.551h4.393a.743.743 0 0 0 .623-.34.707.707 0 0 0 .032-.698l-2.2-4.303a.722.722 0 0 0-.27-.29.743.743 0 0 0-1.04.29l-2.2 4.303a.704.704 0 0 0 .032.698.726.726 0 0 0 .623.34h.007Zm2.2-3.416 1.012 1.982h-2.024l1.012-1.982Z"/></g><defs><clipPath id="a"><path fill="#fff" d="M0 0h44.997v43H0z"/></clipPath></defs></svg>
